icons/plexis/48/deja-dup.svg

<svg viewBox="0 0 48 48" xmlns="http://www.w3.org/2000/svg" xmlns:xlink="http://www.w3.org/1999/xlink">
  <linearGradient id="a" gradientTransform="matrix(0 -1 1 0 -.0000015 47.999998)" gradientUnits="userSpaceOnUse" x1="1" x2="47">
    <stop offset="0" stop-color="#333"/>
    <stop offset="1" stop-color="#3d3d3d"/>
  </linearGradient>
  <path d="m47 24c0 22.703-.297 23-23 23-22.703 0-23-.297-23-23 0-22.703.297-23 23-23 22.703 0 23 .297 23 23z" fill="url(#a)"/>
  <path d="m31 9.994c-3.995.012-8 .006-12 .006l-6 7-3-3-.004 16.867.004.004 9 9.129h11l7-7 3 3v-16.902zm-6.967 6.438l8.254 8.568h-3.287l3 3-6.254 5.773-9.877-8.771.002-.002h5.129l-3-3" opacity=".1" transform=""/>
  <path d="m31.746 24.477l-8.746-9.08 7-6.402 9 9.102v5.898m-7.258.48" fill="#cf9c28"/>
  <path d="m18 39l7-6-10.133-9h-5.871v5.867m9 9.133" fill="#7fa336"/>
  <path d="m9 24h11l-3-3 13-12h-12l-6 7-3-3m0 11" fill="#e4c84c"/>
  <path d="m18 39l13-12-3-3h11v11l-3-3-7 7m-11 0" fill="#abcc5b"/>
  <path d="m9 29.871l5.871-5.871h-5.871m0 5.871" fill="#5f7827"/>
  <path d="m23 15.398h13.328l-6.328-6.398m-7 6.398" fill="#9b7520"/>
</svg>

<svg xmlns="http://www.w3.org/2000/svg" viewBox="0 0 48 48">
 <defs>
  <linearGradient id="linearGradient3764" x1="1" x2="47" gradientUnits="userSpaceOnUse" gradientTransform="matrix(0,-1,1,0,-1.5e-6,47.999998)">
   <stop style="stop-color:#333;stop-opacity:1"/>
   <stop offset="1" style="stop-color:#3d3d3d;stop-opacity:1"/>
  </linearGradient>
 </defs>
 <g>
  
  
  
 </g>
 <g>
  <path d="m 47,24 C 47,46.703 46.703,47 24,47 1.297,47 1,46.703 1,24 1,1.297 1.297,1 24,1 46.703,1 47,1.297 47,24 z" style="fill:url(#linearGradient3764);fill-opacity:1"/>
 </g>
 <g>
  <g>
   <g transform="translate(1,1)">
    <g style="opacity:0.1">
     <!-- color: #3d3d3d -->
     <g>
      <path d="m 31 9.994 c -3.995 0.012 -8 0.006 -12 0.006 l -6 7 -3 -3 -0.004 16.867 0.004 0.004 9 9.129 l 11 0 7 -7 3 3 0 -16.902 z m -6.967 6.438 8.254 8.568 -3.287 0 3 3 -6.254 5.773 -9.877 -8.771 0.002 -0.002 5.129 0 -3 -3" transform="translate(-1,-1)"/>
     </g>
    </g>
   </g>
  </g>
 </g>
 <g>
  <g>
   <!-- color: #3d3d3d -->
   <g>
    <path d="M 31.746,24.477 23,15.397 l 7,-6.402 9,9.102 0,5.898 m -7.258,0.48" style="fill:#cf9c28;fill-opacity:1;stroke:none;fill-rule:nonzero"/>
    <path d="m 18 39 7 -6 -10.133 -9 -5.871 0 0 5.867 m 9 9.133" style="fill:#7fa336;fill-opacity:1;stroke:none;fill-rule:nonzero"/>
    <path d="M 9,24 20,24 17,21 30,9 18,9 12,16 9,13 m 0,11" style="fill:#e4c84c;fill-opacity:1;stroke:none;fill-rule:nonzero"/>
    <path d="m 18 39 13 -12 -3 -3 11 0 0 11 -3 -3 -7 7 m -11 0" style="fill:#abcc5b;fill-opacity:1;stroke:none;fill-rule:nonzero"/>
    <path d="M 9,29.871 14.871,24 9,24 m 0,5.871" style="fill:#5f7827;fill-opacity:1;stroke:none;fill-rule:nonzero"/>
    <path d="m 23,15.398 13.328,0 L 30,9 m -7,6.398" style="fill:#9b7520;fill-opacity:1;stroke:none;fill-rule:nonzero"/>
   </g>
  </g>
 </g>
 <g>
  
 </g>
</svg>
